X: 1
T: Gan Ainm
M: 6/8
L: 1/8
R: jig
K: Amaj
|:z | A3 eAA | eaf ece | fec BAE | FAc B3 |
A3 eAA | eaf ece | fec BAE | FAA A2 :|
|:a | fec eac' | baf faf | ecA BAF | EAc B3 | 
AFE FEC | A,CE FEC | A,CE ABc | B3 A2 :|
